lib/healthicons/icons/outline/typography/L.svg

<svg fill="none" height="48" viewBox="0 0 48 48" width="48" xmlns="http://www.w3.org/2000/svg"><path clip-rule="evenodd" d="m15 12c0-1.6569 1.3431-3 3-3s3 1.3431 3 3v21h9c1.6569 0 3 1.3431 3 3s-1.3431 3-3 3h-12c-1.6569 0-3-1.3431-3-3zm3-1c-.5523 0-1 .4477-1 1v24c0 .5523.4477 1 1 1h12c.5523 0 1-.4477 1-1s-.4477-1-1-1h-10c-.5523 0-1-.4477-1-1v-22c0-.5523-.4477-1-1-1z" fill="#333" fill-rule="evenodd"/></svg>

<svg width="48" height="48" viewBox="0 0 48 48" fill="none" xmlns="http://www.w3.org/2000/svg">
<path fill-rule="evenodd" clip-rule="evenodd" d="M15 12C15 10.3431 16.3431 9 18 9C19.6569 9 21 10.3431 21 12L21 33H30C31.6569 33 33 34.3431 33 36C33 37.6569 31.6569 39 30 39H18C16.3431 39 15 37.6569 15 36L15 12ZM18 11C17.4477 11 17 11.4477 17 12L17 36C17 36.5523 17.4477 37 18 37H30C30.5523 37 31 36.5523 31 36C31 35.4477 30.5523 35 30 35H20C19.4477 35 19 34.5523 19 34L19 12C19 11.4477 18.5523 11 18 11Z" fill="#333333"/>
</svg>
